X:1
T:[ID 1-33a]
T:[ID 1-33a]
T:Bezeichnung standardisiert: Menuet van de graaf van Saksen; Men\"uet 3. In anderer Quelle: Menuet van de graaf van Saksen (Anm. S. Wascher);  163 - Hs. Bolhuis 1738 (Anm. S. Wascher);
T:Urheber unbekannt Erstbeleg: 1738 (Datum in der schriftlichen Quelle) Datum in der hier transkribierten schriftlichen Quelle: 1767
C:Urheber unbekannt
C:Erstbeleg: 1738 (Datum in der schriftlichen Quelle)
C:Datum in der hier transkribierten schriftlichen Quelle: 1767
L:1/8
M:3/4
K:G
V:1 bass 
V:1
 B,2 A,2 G,2 | A,2 D,2 G,2 | B,2 A,2 G,2 | A,2 D,2 G,2 | B,2 A,2 G,2 | C2 C,2 B,2 | F,2 D,2 G,2 | %7
 D,2 A,,2 D,,2 :: F,2 E,2 D,2 | E,2 A,,2 D,2 | F,2 D,2 E,2 | F,2 D,2 G,2 | B,2 A,2 G,2 | %13
 A,2 D,2 G,2 | B,2 A,2 G,2 | A,2 D,2 G,2 | E,2 F,2 D,,2 | G,2 D,2 G,,2 :| %18

